X:1
T: John A. Cameron
C:
R:Jig
Q:180
K:C
M:6/8
L:1/16
(3GAB|c4c2 G4F2|E2D2E2 C2D2E2|F4A2 d4c2|B2d2g2 f2e2d2|c4c2 G4F2|E2D2E2 C2D2E2|F2A2d2 B2A2B2|c6C4Bc|
d4B2 G2B2d2|e4c2 G2c2e2|f2g2f2 e2d2e2|d2B2G2 G2A2B2|c2G2E2 F2A2d2|B2A2B2 c2d2e2|f2e2f2 G2A2B2|c6c3(3GAB|
c4c2 G4F2|E2D2E2 C2D2E2|F4A2 d4c2|B2d2g2 f2e2d2|c4c2 G4F2|E2D2E2 C2D2E2|F2A2d2 B2A2B2|c6C4Bc|
d4B2 G2B2d2|e4c2 G2c2e2|f2g2f2 e2d2e2|d2B2G2 G2A2B2|c2G2E2 F2A2d2|B2A2B2 c2d2e2|f2e2f2 G2A2B2|c6c4||
